;FLAVOR:Marlin
;TIME:10683
;Filament used: 6.36166m
;Layer height: 0.2
;MINX:64.1
;MINY:59.334
;MINZ:0.2
;MAXX:170.9
;MAXY:175.62
;MAXZ:10
;Generated with Cura_SteamEngine 4.8.0
M140 S50
M105
M190 S50
M104 S200
M105
M109 S200
M82 ;absolute extrusion mode
; Ender 3 Custom Start G-code
G92 E0 ; Reset Extruder
G28 ; Home all axes
G1 Z2.0 F3000 ; Move Z Axis up little to prevent scratching of Heat Bed
G1 X0.1 Y20 Z0.3 F5000.0 ; Move to start position
G1 X0.1 Y200.0 Z0.3 F1500.0 E15 ; Draw the first line
G1 X0.4 Y200.0 Z0.3 F5000.0 ; Move to side a little
G1 X0.4 Y20 Z0.3 F1500.0 E30 ; Draw the second line
G92 E0 ; Reset Extruder
G1 Z2.0 F3000 ; Move Z Axis up little to prevent scratching of Heat Bed
G1 X5 Y20 Z0.3 F5000.0 ; Move over to prevent blob squish
G92 E0
G92 E0
G1 F2700 E-5
;LAYER_COUNT:50
;LAYER:0
M107
G0 F6000 X67.31 Y62.586 Z0.2
;TYPE:SKIRT
G1 F2700 E0
G1 F1200 X67.999 Y61.95 E0.03119
G1 X68.74 Y61.375 E0.06238
G1 X69.527 Y60.865 E0.09357
G1 X70.355 Y60.424 E0.12478
G1 X71.217 Y60.055 E0.15596
G1 X72.108 Y59.761 E0.18717
G1 X73.02 Y59.543 E0.21836
G1 X73.947 Y59.405 E0.24953
G1 X74.801 Y59.347 E0.278
G1 X75.121 Y59.338 E0.28865
G1 X75.43 Y59.334 E0.29892
G1 X159.193 Y59.334 E3.08489
G1 X160.049 Y59.345 E3.11337
G1 X160.985 Y59.399 E3.14455
G1 X161.913 Y59.531 E3.17572
G1 X162.827 Y59.743 E3.20693
G1 X163.719 Y60.032 E3.23812
G1 X164.584 Y60.395 E3.26932
G1 X165.414 Y60.831 E3.3005
G1 X166.205 Y61.336 E3.33171
G1 X166.949 Y61.907 E3.36291
G1 X167.642 Y62.539 E3.3941
G1 X168.279 Y63.227 E3.42529
G1 X168.854 Y63.968 E3.45648
G1 X169.365 Y64.754 E3.48767
G1 X169.807 Y65.582 E3.51888
G1 X170.176 Y66.444 E3.55007
G1 X170.471 Y67.334 E3.58125
G1 X170.689 Y68.246 E3.61244
G1 X170.829 Y69.174 E3.64366
G1 X170.887 Y70.035 E3.67236
G1 X170.896 Y70.355 E3.68301
G1 X170.9 Y70.664 E3.69328
G1 X170.899 Y162.966 E6.76326
G1 X170.889 Y163.668 E6.78661
G1 X170.836 Y164.604 E6.81779
G1 X170.703 Y165.532 E6.84897
G1 X170.491 Y166.446 E6.88018
G1 X170.203 Y167.339 E6.91139
G1 X169.839 Y168.203 E6.94257
G1 X169.403 Y169.034 E6.97378
G1 X168.898 Y169.824 E7.00497
G1 X168.152 Y170.774 E7.04514
G1 X167.665 Y171.328 E7.06968
G1 X167.445 Y171.571 E7.08058
G1 X166.941 Y172.111 E7.10515
G1 X166.815 Y172.248 E7.11134
G1 X166.135 Y172.895 E7.14256
G1 X165.403 Y173.481 E7.17374
G1 X164.624 Y174.003 E7.20493
G1 X163.803 Y174.456 E7.23612
G1 X162.946 Y174.838 E7.26733
G1 X162.06 Y175.146 E7.29853
G1 X161.151 Y175.377 E7.32972
G1 X160.226 Y175.53 E7.36091
G1 X159.203 Y175.606 E7.39502
G1 X158.841 Y175.616 E7.40707
G1 X158.537 Y175.62 E7.41718
G1 X76.65 Y175.618 E10.14075
G1 X75.948 Y175.608 E10.1641
G1 X75.012 Y175.555 E10.19529
G1 X74.084 Y175.422 E10.22647
G1 X73.17 Y175.21 E10.25767
G1 X72.277 Y174.922 E10.28888
G1 X71.413 Y174.558 E10.32006
G1 X70.582 Y174.122 E10.35128
G1 X69.792 Y173.617 E10.38246
G1 X69.048 Y173.047 E10.41363
G1 X68.175 Y172.232 E10.45336
G1 X67.927 Y171.974 E10.46526
G1 X67.713 Y171.745 E10.47568
G1 X67.286 Y171.272 E10.49688
G1 X66.835 Y170.757 E10.51965
G1 X66.247 Y170.026 E10.55085
G1 X65.725 Y169.247 E10.58204
G1 X65.27 Y168.427 E10.61323
G1 X64.887 Y167.571 E10.64442
G1 X64.578 Y166.685 E10.67563
G1 X64.346 Y165.776 E10.70683
G1 X64.192 Y164.851 E10.73802
G1 X64.111 Y163.669 E10.77743
G1 X64.1 Y162.818 E10.80573
G1 X64.101 Y70.843 E13.86483
G1 X64.111 Y70.178 E13.88695
G1 X64.165 Y69.241 E13.91817
G1 X64.299 Y68.313 E13.94936
G1 X64.511 Y67.399 E13.98056
G1 X64.8 Y66.507 E14.01175
G1 X65.165 Y65.643 E14.04295
G1 X65.601 Y64.813 E14.07413
G1 X66.107 Y64.023 E14.10533
G1 X66.678 Y63.279 E14.13653
G1 X67.31 Y62.586 E14.16772
G0 F6000 X67.702 Y62.761
G1 F1200 X68.388 Y62.147 E14.19834
G1 X69.124 Y61.595 E14.22894
G1 X69.906 Y61.108 E14.25958
G1 X70.727 Y60.692 E14.29019
G1 X71.581 Y60.348 E14.32081
G1 X72.461 Y60.079 E14.35142
G1 X73.362 Y59.888 E14.38205
G1 X74.276 Y59.776 E14.41268
G1 X74.812 Y59.747 E14.43053
G1 X75.132 Y59.738 E14.44118
G1 X75.43 Y59.734 E14.45109
G1 X159.193 Y59.734 E17.23706
G1 X160.043 Y59.745 E17.26534
G1 X160.962 Y59.798 E17.29595
G1 X161.873 Y59.931 E17.32657
G1 X162.769 Y60.142 E17.35719
G1 X163.643 Y60.43 E17.3878
G1 X164.49 Y60.793 E17.41845
G1 X165.301 Y61.228 E17.44906
G1 X166.071 Y61.732 E17.47967
G1 X166.795 Y62.301 E17.51029
G1 X167.467 Y62.931 E17.54093
G1 X168.082 Y63.616 E17.57155
G1 X168.635 Y64.352 E17.60217
G1 X169.122 Y65.133 E17.63278
G1 X169.539 Y65.954 E17.66341
G1 X169.884 Y66.808 E17.69404
G1 X170.153 Y67.688 E17.72465
G1 X170.345 Y68.589 E17.75529
G1 X170.458 Y69.502 E17.78589
G1 X170.487 Y70.046 E17.804
G1 X170.496 Y70.366 E17.81465
G1 X170.5 Y70.664 E17.82456
G1 X170.499 Y162.96 E20.89434
G1 X170.489 Y163.662 E20.91769
G1 X170.436 Y164.581 E20.94831
G1 X170.303 Y165.492 E20.97893
G1 X170.092 Y166.388 E21.00955
G1 X169.804 Y167.263 E21.04019
G1 X169.441 Y168.109 E21.0708
G1 X169.006 Y168.92 E21.10141
G1 X168.502 Y169.691 E21.13205
G1 X167.851 Y170.509 E21.16682
G1 X167.364 Y171.063 E21.19135
G1 X167.152 Y171.298 E21.20188
G1 X166.648 Y171.838 E21.22645
G1 X166.643 Y171.834 E21.22666
G1 X166.42 Y172.079 E21.23768
G1 X165.744 Y172.704 E21.2683
G1 X165.016 Y173.267 E21.29891
G1 X164.241 Y173.765 E21.32955
G1 X163.427 Y174.194 E21.36015
G1 X162.578 Y174.551 E21.39079
G1 X161.702 Y174.833 E21.4214
G1 X160.804 Y175.037 E21.45202
G1 X159.892 Y175.163 E21.48265
G1 X159.192 Y175.206 E21.50597
G1 X158.83 Y175.216 E21.51802
G1 X158.537 Y175.22 E21.52776
G1 X76.656 Y175.218 E24.25114
G1 X75.954 Y175.208 E24.27449
G1 X75.035 Y175.155 E24.3051
G1 X74.124 Y175.022 E24.33572
G1 X73.228 Y174.811 E24.36634
G1 X72.353 Y174.523 E24.39698
G1 X71.507 Y174.16 E24.4276
G1 X70.696 Y173.725 E24.45821
G1 X69.925 Y173.221 E24.48884
G1 X69.201 Y172.653 E24.51945
G1 X68.463 Y171.955 E24.55324
G1 X68.215 Y171.697 E24.56514
G1 X68.009 Y171.477 E24.57516
G1 X67.713 Y171.151 E24.58981
G1 X67.136 Y170.493 E24.61892
G1 X66.56 Y169.775 E24.64953
G1 X66.048 Y169.01 E24.68015
G1 X65.605 Y168.203 E24.71077
G1 X65.234 Y167.36 E24.7414
G1 X64.937 Y166.489 E24.77201
G1 X64.717 Y165.595 E24.80263
G1 X64.575 Y164.685 E24.83326
G1 X64.511 Y163.663 E24.86732
G1 X64.5 Y162.818 E24.89543
G1 X64.501 Y70.849 E27.95433
G1 X64.511 Y70.184 E27.97645
G1 X64.565 Y69.265 E28.00707
G1 X64.698 Y68.354 E28.03769
G1 X64.91 Y67.458 E28.06831
G1 X65.199 Y66.583 E28.09896
G1 X65.563 Y65.738 E28.12957
G1 X65.998 Y64.927 E28.16017
G1 X66.503 Y64.156 E28.19083
G1 X67.072 Y63.433 E28.22143
G1 X67.702 Y62.761 E28.25207
G0 F6000 X68.093 Y62.94
G1 F1200 X68.775 Y62.348 E28.2821
G1 X69.507 Y61.819 E28.31214
G1 X70.283 Y61.357 E28.34218
G1 X71.097 Y60.966 E28.37222
G1 X71.942 Y60.647 E28.40226
G1 X72.812 Y60.405 E28.43229
G1 X73.7 Y60.241 E28.46233
G1 X74.823 Y60.147 E28.49981
G1 X75.143 Y60.138 E28.51046
G1 X75.43 Y60.134 E28.52
G1 X159.193 Y60.134 E31.30597
G1 X160.037 Y60.145 E31.33404
G1 X160.939 Y60.198 E31.3641
G1 X161.832 Y60.33 E31.39412
G1 X162.71 Y60.541 E31.42415
G1 X163.566 Y60.829 E31.45419
G1 X164.393 Y61.191 E31.48422
G1 X165.185 Y61.626 E31.51427
G1 X165.936 Y62.128 E31.54432
G1 X166.639 Y62.695 E31.57436
G1 X167.289 Y63.322 E31.6044
G1 X167.881 Y64.004 E31.63443
G1 X168.411 Y64.735 E31.66446
G1 X168.873 Y65.511 E31.6945
G1 X169.266 Y66.324 E31.72454
G1 X169.584 Y67.169 E31.75456
G1 X169.827 Y68.039 E31.78461
G1 X169.992 Y68.927 E31.81465
G1 X170.087 Y70.057 E31.85237
G1 X170.096 Y70.377 E31.86301
G1 X170.1 Y70.664 E31.87256
G1 X170.099 Y162.954 E34.94214
G1 X170.089 Y163.656 E34.96549
G1 X170.036 Y164.558 E34.99554
G1 X169.904 Y165.451 E35.02556
G1 X169.693 Y166.329 E35.0556
G1 X169.405 Y167.185 E35.08564
G1 X169.043 Y168.013 E35.11569
G1 X168.609 Y168.805 E35.14573
G1 X168.106 Y169.555 E35.17577
G1 X167.551 Y170.245 E35.20522
G1 X167.064 Y170.799 E35.22975
G1 X166.86 Y171.025 E35.23988
G1 X166.356 Y171.565 E35.26445
G1 X166.351 Y171.56 E35.26468
G1 X166.026 Y171.907 E35.28049
G1 X165.353 Y172.508 E35.31051
G1 X164.629 Y173.048 E35.34055
G1 X163.86 Y173.522 E35.37059
G1 X163.053 Y173.926 E35.40061
G1 X162.212 Y174.257 E35.43067
G1 X161.346 Y174.512 E35.46069
G1 X160.461 Y174.69 E35.49072
G1 X159.181 Y174.806 E35.53347
G1 X158.819 Y174.816 E35.54551
G1 X158.537 Y174.82 E35.55489
G1 X76.662 Y174.818 E38.27806
G1 X75.96 Y174.808 E38.30142
G1 X75.058 Y174.755 E38.33147
G1 X74.165 Y174.623 E38.36149
G1 X73.287 Y174.412 E38.39153
G1 X72.431 Y174.124 E38.42157
G1 X71.603 Y173.762 E38.45162
G1 X70.811 Y173.328 E38.48166
G1 X70.061 Y172.825 E38.51169
G1 X69.358 Y172.259 E38.54171
G1 X68.751 Y171.678 E38.56966
G1 X68.503 Y171.42 E38.58156
G1 X68.305 Y171.208 E38.59121
G1 X67.887 Y170.745 E38.61196
G1 X67.436 Y170.23 E38.63473
G1 X66.872 Y169.525 E38.66475
G1 X66.372 Y168.773 E38.69479
G1 X65.941 Y167.979 E38.72484
G1 X65.582 Y167.151 E38.75486
G1 X65.297 Y166.294 E38.78489
G1 X65.089 Y165.415 E38.81494
G1 X64.96 Y164.521 E38.84498
G1 X64.911 Y163.657 E38.87376
G1 X64.9 Y162.818 E38.90167
G1 X64.901 Y70.855 E41.96037
G1 X64.911 Y70.19 E41.98249
G1 X64.965 Y69.288 E42.01255
G1 X65.098 Y68.395 E42.04258
G1 X65.309 Y67.517 E42.07261
G1 X65.598 Y66.661 E42.10266
G1 X65.961 Y65.834 E42.1327
G1 X66.395 Y65.043 E42.16271
G1 X66.898 Y64.292 E42.19277
G1 X67.466 Y63.59 E42.2228
G1 X68.093 Y62.94 E42.25284
G1 F2700 E37.25284
;MESH:Vremenska Postaja Vrata v001 .stl
G0 F6000 X83.165 Y90.406
G0 X81.73 Y90.406
G0 X81.9 Y92.333
;TYPE:WALL-INNER
G1 F2700 E42.25284
G1 F1200 X153.1 Y92.333 E44.62096
G1 X153.1 Y86.734 E44.80719
G1 X81.9 Y86.734 E47.17531
G1 X81.9 Y92.333 E47.36153
G0 F6000 X82.3 Y91.933
;TYPE:WALL-OUTER
G1 F1200 X152.7 Y91.933 E49.70305
G1 X152.7 Y87.134 E49.86266
G1 X82.3 Y87.134 E52.20418
G1 X82.3 Y91.933 E52.36379
G1 F2700 E47.36379
G0 F6000 X82 Y91.933
G0 X81.9 Y92.523
G0 X81.898 Y93.443
G0 X81.9 Y99.333
;TYPE:WALL-INNER
G1 F2700 E52.36379
G1 F1200 X153.1 Y99.333 E54.73191
G1 X153.1 Y93.634 E54.92146
G1 X82.099 Y93.633 E57.28296
G1 X81.9 Y93.633 E57.28958
G1 X81.9 Y93.832 E57.29387
G1 X81.9 Y99.333 E57.47683
G0 F6000 X82.3 Y98.933
;TYPE:WALL-OUTER
G1 F1200 X152.7 Y98.933 E59.81834
G1 X152.7 Y94.034 E59.98128
G1 X82.3 Y94.033 E62.3228
G1 X82.3 Y98.933 E62.48577
G1 F2700 E57.48577
G0 F6000 X82 Y98.933
G0 X81.9 Y99.523
G0 X81.898 Y100.443
G0 X81.9 Y106.333
;TYPE:WALL-INNER
G1 F2700 E62.48577
G1 F1200 X153.1 Y106.333 E64.85389
G1 X153.1 Y100.634 E65.04344
G1 X82.099 Y100.633 E67.40495
G1 X81.9 Y100.633 E67.41157
G1 X81.9 Y100.832 E67.41585
G1 X81.9 Y106.333 E67.59881
G0 F6000 X82.3 Y105.933
;TYPE:WALL-OUTER
G1 F1200 X152.7 Y105.933 E69.94033
G1 X152.7 Y101.034 E70.10327
G1 X82.3 Y101.033 E72.44478
G1 X82.3 Y105.933 E72.60775
G1 F2700 E67.60775
G0 F6000 X82 Y105.933
G0 X81.9 Y106.523
G0 X81.898 Y107.443
G0 X81.9 Y113.333
;TYPE:WALL-INNER
G1 F2700 E72.60775
G1 F1200 X153.1 Y113.333 E74.97588
G1 X153.1 Y107.634 E75.16543
G1 X82.099 Y107.633 E77.52693
G1 X81.9 Y107.633 E77.53355
G1 X81.9 Y107.832 E77.53783
G1 X81.9 Y113.333 E77.72079
G0 F6000 X82.3 Y112.933
;TYPE:WALL-OUTER
G1 F1200 X152.7 Y112.933 E80.06231
G1 X152.7 Y108.034 E80.22525
G1 X82.3 Y108.033 E82.56676
G1 X82.3 Y112.933 E82.72974
G1 F2700 E77.72974
G0 F6000 X82 Y112.933
G0 X81.9 Y113.523
G0 X81.898 Y114.443
G0 X81.9 Y120.333
;TYPE:WALL-INNER
G1 F2700 E82.72974
G1 F1200 X153.1 Y120.333 E85.09786
G1 X153.1 Y114.634 E85.28741
G1 X82.099 Y114.633 E87.64891
G1 X81.9 Y114.633 E87.65553
G1 X81.9 Y114.832 E87.65981
G1 X81.9 Y120.333 E87.84278
G0 F6000 X82.3 Y119.933
;TYPE:WALL-OUTER
G1 F1200 X152.7 Y119.933 E90.18429
G1 X152.7 Y115.034 E90.34723
G1 X82.3 Y115.033 E92.68874
G1 X82.3 Y119.933 E92.85172
G1 F2700 E87.85172
G0 F6000 X82 Y119.933
G0 X81.9 Y120.523
G0 X81.898 Y121.443
G0 X81.9 Y127.333
;TYPE:WALL-INNER
G1 F2700 E92.85172
G1 F1200 X153.1 Y127.333 E95.21984
G1 X153.1 Y121.634 E95.40939
G1 X82.099 Y121.633 E97.77089
G1 X81.9 Y121.633 E97.77751
G1 X81.9 Y121.832 E97.78179
G1 X81.9 Y127.333 E97.96476
G0 F6000 X82.3 Y126.933
;TYPE:WALL-OUTER
G1 F1200 X152.7 Y126.933 E100.30627
G1 X152.7 Y122.034 E100.46921
G1 X82.3 Y122.033 E102.81073
G1 X82.3 Y126.933 E102.9737
G1 F2700 E97.9737
G0 F6000 X82 Y126.933
G0 X81.9 Y127.523
G0 X81.898 Y128.443
G0 X81.9 Y134.333
;TYPE:WALL-INNER
G1 F2700 E102.9737
G1 F1200 X153.1 Y134.333 E105.34182
G1 X153.1 Y128.634 E105.53137
G1 X82.099 Y128.633 E107.89288
G1 X81.9 Y128.633 E107.89949
G1 X81.9 Y128.832 E107.90378
G1 X81.9 Y134.333 E108.08674
G0 F6000 X82.3 Y133.933
;TYPE:WALL-OUTER
G1 F1200 X152.7 Y133.933 E110.42825
G1 X152.7 Y129.034 E110.5912
G1 X82.3 Y129.033 E112.93271
G1 X82.3 Y133.933 E113.09568
G1 F2700 E108.09568
G0 F6000 X82 Y133.933
G0 X81.9 Y134.523
G0 X81.898 Y135.443
G0 X81.9 Y141.333
;TYPE:WALL-INNER
G1 F2700 E113.09568
G1 F1200 X153.1 Y141.333 E115.46381
G1 X153.1 Y135.634 E115.65335
G1 X82.099 Y135.633 E118.01486
G1 X81.9 Y135.633 E118.02148
G1 X81.9 Y135.832 E118.02576
G1 X81.9 Y141.333 E118.20872
G0 F6000 X82.3 Y140.933
;TYPE:WALL-OUTER
G1 F1200 X152.7 Y140.933 E120.55024
G1 X152.7 Y136.034 E120.71318
G1 X82.3 Y136.033 E123.05469
G1 X82.3 Y140.933 E123.21767
G1 F2700 E118.21767
G0 F6000 X82 Y140.933
G0 X81.9 Y141.523
G0 X81.898 Y142.443
G0 X81.9 Y148.333
;TYPE:WALL-INNER
G1 F2700 E123.21767
G1 F1200 X153.1 Y148.333 E125.58579
G1 X153.1 Y142.634 E125.77534
G1 X82.099 Y142.633 E128.13684
G1 X81.9 Y142.633 E128.14346
G1 X81.9 Y142.832 E128.14774
G1 X81.9 Y148.333 E128.3307
G0 F6000 X82.3 Y147.933
;TYPE:WALL-OUTER
G1 F1200 X152.7 Y147.933 E130.67222
G1 X152.7 Y143.034 E130.83516
G1 X82.3 Y143.033 E133.17667
G1 X82.3 Y147.933 E133.33965
G1 F2700 E128.33965
G0 F6000 X82 Y147.933
G0 X81.9 Y148.523
G0 X81.898 Y149.443
G0 X81.9 Y155.333
;TYPE:WALL-INNER
G1 F2700 E133.33965
G1 F1200 X153.1 Y155.333 E135.70777
G1 X153.1 Y149.634 E135.89732
G1 X82.099 Y149.633 E138.25882
G1 X81.9 Y149.633 E138.26544
G1 X81.9 Y149.832 E138.26972
G1 X81.9 Y155.333 E138.45269
G0 F6000 X82.3 Y154.933
;TYPE:WALL-OUTER
G1 F1200 X152.7 Y154.933 E140.7942
G1 X152.7 Y150.034 E140.95714
G1 X82.3 Y150.033 E143.29866
G1 X82.3 Y154.933 E143.46163
G1 F2700 E138.46163
G0 F6000 X82 Y154.933
G0 X81.9 Y155.523
G0 X81.898 Y156.443
G0 X81.9 Y157.934
;TYPE:WALL-INNER
G1 F2700 E143.46163
G1 F1200 X153.1 Y157.934 E145.82975
G1 X153.1 Y156.634 E145.87299
G1 X82.099 Y156.633 E148.23449
G1 X81.9 Y156.633 E148.24111
G1 X81.9 Y156.832 E148.24539
G1 X81.9 Y157.934 E148.28205
G0 F6000 X82.3 Y157.534
;TYPE:WALL-OUTER
G1 F1200 X152.7 Y157.534 E150.62356
G1 X152.7 Y157.034 E150.64019
G1 X82.3 Y157.033 E152.9817
G1 X82.3 Y157.534 E152.99837
G1 F2700 E147.99837
G0 F6000 X82 Y157.534
G0 X153.29 Y158.124
G0 X153.288 Y163.829
G0 X158.634 Y164.02
;TYPE:WALL-INNER
G1 F2700 E152.99837
G1 F1200 X76.366 Y164.019 E155.73461
G1 X75.7 Y163.284 E155.7676
G1 X75.7 Y70.934 E158.83917
G1 X159.3 Y70.934 E161.61972
G1 X159.3 Y163.285 E164.69133
G1 X158.634 Y164.02 E164.72432
G0 F6000 X158.812 Y164.42
;TYPE:WALL-OUTER
G1 F1200 X76.188 Y164.419 E167.4724
G1 X75.3 Y163.438 E167.51641
G1 X75.3 Y70.534 E170.60641
G1 X159.7 Y70.534 E173.41357
G1 X159.7 Y163.439 E176.5036
G1 X158.812 Y164.42 E176.54761
G0 F6000 X158.634 Y164.018
G0 X158.461 Y163.63
;TYPE:SKIN
G1 F1200 X76.539 Y163.629 E179.27235
G1 X76.09 Y163.133 E179.2946
G1 X76.09 Y71.324 E182.34818
G1 X158.91 Y71.324 E185.10278
G1 X158.91 Y163.134 E188.1564
G1 X158.461 Y163.63 E188.17865
G1 F2700 E183.17865
G0 F6000 X158.46 Y163.909
G0 X153.208 Y163.829
G0 X153.208 Y158.124
G0 X153.49 Y158.324
G1 F2700 E188.17865
G1 F1200 X153.49 Y156.244 E188.24783
G1 X81.51 Y156.243 E190.6419
G1 X81.51 Y158.324 E190.71111
G1 X153.49 Y158.324 E193.10517
G1 F2700 E188.10517
G0 F6000 X153.21 Y158.074
